X:158
T:Polska efter Bruun
R:sl\"angpolska
H:Version 1: efter Johan Jacob Bruun (1818-1889)
H:Version 2: Svl Sk{\aa}ne 338 efter Ored Andersson, Linder\"od
H:jfr Sk{\aa}nska Melodier 87, 151
A:Sk{\aa}ne
Z:id:hn-sp-158
M:3/4
L:1/16
K:Gm
G3B d2^f2 g2b2 | a2=f2 d4 B4 | d2dB c2cA B2BG | A2AG ^FGAF D4 |
G3B d2^f2 g2b2 | a2=f2 d4 B4 | d2dB c2cA B2BG | BAG^F F2G2 G4 :|
|: d4 B3d B3d | d3c A3c A3c | d2d2 B3d B2d2 | d2c2 A2c2 B2A2 |
G3B d2^f2 g2b2 | a2=f2 d4 ^f4 | g2g2 a2a2 b2b2 | a2ag ^f2af d4 |
d2dB c2cA B2BG | BAG^F F2G2 G4 :|
P:version 2:
|: D2 | G2B2 d2^f2 g2b2 | a2^f2 d4 B4 | d2Bd c2Ac B2GB |
BAG^F G2BA GDB,G, | G2B2 d2^f2 g2b2 | a2^f2 d4 B4 | d2Bd c2Ac B2GB |
BAG^F A4 G2 :||: GA | B2B2 B2B2 B2d2 | d2c2 A2F2 A2c2 |
d4 B2d2 B2d2 | d2c2 A2F2 AcBA | G2B2 d2^f2 g2b2 | a2^f2 d4 B4 |
g4 a4 b4 | a2g2 ^fgab d4 | d2Bd c2Ac B2GB | BAG^F A4 G2 :|

